FINK
CUT[WAS IST DES DEUTSCHEN VATERLAND]
REG[Europa, Mitteleuropa, Deutschland]
KEY[F0433  16  D 4/4]
MEL[-5__  1__.-6_-5_-6_-5_-4_  -4__-3__0__
    1__  1_.-6-6__0__1__  1_.-5-5__0__
    1__  -7__.-7_1__.1_  2_.-7-5__0__
    -5__  1__.1_2__.2_  3_.21__0__
    -5__  3__.2_4_3_2_1_  1__-6__0_
    -6_1_-6_  -5__.1_3_2_1_-7_  1__0___
    -5__  3__.2_4_3_2_1_  1__-6__0_
    -6_1_-6_  -5__.1_3_2_1_-7_  1__0___ //] >>
FCT[Vaterlands -, Heimat - Lied, nationalistisch]
